!!!OTL: ES HAT EIN BAUER EIN TOECHTERLEIN
!!!ARE: Europa, Mitteleuropa, Deutschland
!!!SCT: E0158
!!!YEM: Copyright 1995, estate of Helmut Schaffrath.
**kern
*ICvox
*Ivox
*M6/4
*k[]
*C:
{4c
=1
2c
4c
2c
4A
=2
2B
4B
2d}
{4c
=3
2B
4A
2G
4G
=4
2G
4G
2A}
{4A
=5
2B
4B
2c
4c
=6
2c
4c
2d}
{4d
=7
2d
4d
2d
4d
=8
2e
4e
4c
4e
4d
=9
2c
4B
2c}
==
!!!AGN: erzaehlendes Volks - Lied, Scherz, Schwank, Studenten - Lied, Ballade ?
!!!ONB: ESAC (Essen Associative Code) Database: ERK1
!!!AMT: compound duple
!!!AIN: vox
!!!EED: Helmut Schaffrath
!!!EEV: 1.0
*-
